public/icons/location_white.svg

<svg width="16" height="18" viewBox="0 0 16 18" fill="none" xmlns="http://www.w3.org/2000/svg">
<path fill-rule="evenodd" clip-rule="evenodd" d="M8.0013 0.25C11.9109 0.25 15.0846 3.42375 15.0846 7.33333C15.0846 9.36917 14.0688 11.4646 12.7934 13.2242C11.0126 15.6817 8.78547 17.4733 8.78547 17.4733V17.4738C8.5632 17.6525 8.28653 17.75 8.0013 17.75C7.71607 17.75 7.4394 17.6525 7.21714 17.4738V17.4733C7.21714 17.4733 4.99005 15.6817 3.20922 13.2242C1.9338 11.4646 0.917969 9.36917 0.917969 7.33333C0.917969 3.42375 4.09172 0.25 8.0013 0.25ZM8.0013 4.41667C9.61089 4.41667 10.918 5.72375 10.918 7.33333C10.918 8.94292 9.61089 10.25 8.0013 10.25C6.39172 10.25 5.08464 8.94292 5.08464 7.33333C5.08464 5.72375 6.39172 4.41667 8.0013 4.41667Z" fill="white"/>
</svg>

<svg xmlns="http://www.w3.org/2000/svg" width="16" height="18" fill="none"><path fill="#fff" fill-rule="evenodd" d="M8.001.25a7.086 7.086 0 0 1 7.084 7.083c0 2.036-1.016 4.132-2.292 5.891-1.78 2.458-4.008 4.25-4.008 4.25a1.252 1.252 0 0 1-1.568 0s-2.227-1.792-4.008-4.25C1.934 11.464.918 9.37.918 7.334A7.086 7.086 0 0 1 8.001.25Zm0 4.167a2.918 2.918 0 0 1 2.917 2.916 2.918 2.918 0 0 1-2.917 2.917 2.918 2.918 0 0 1-2.916-2.917A2.918 2.918 0 0 1 8 4.417Z" clip-rule="evenodd"/></svg>
